X: 1228
T: An Dro 'Maïwenn'
R: polka
M: 2/4
K: Eminor
"E(no 3rd)"EE/D/ EE/B/|AG/F/ EB|E/D/E/D/ EE/B/|1 AG/F/ E>B:|2 AG/F/ E2||
|:"Em"EG/B/ .e.e|"D"dc/d/ "Bm"B2|"G"GA/B/ "Am"cA|"Em"G/A/G/F/ GE|
EF/G/ "Bm".F.c|"Em"BE "D"F>F|"G"BB/B/ "Am"A/B/A/G/|"D/F#"F/E/F/G/ "Em"E2:|

